packages/tokens/icons/flexible/size16Px.svg

<svg viewBox="0 0 16 16" fill="none" xmlns="http://www.w3.org/2000/svg" width="1em" height="1em"><path fill-rule="evenodd" clip-rule="evenodd" d="M7.5 6.5L7.5 1.5C7.5 1.22386 7.72386 1 8 1C8.27614 1 8.5 1.22386 8.5 1.5L8.5 6.5C8.5 6.77614 8.27614 7 8 7C7.72386 7 7.5 6.77614 7.5 6.5ZM14 8.5C14 8.77614 13.7761 9 13.5 9H10C9.17157 9 8.5 9.67157 8.5 10.5L8.5 13.5C8.5 13.7761 8.27614 14 8 14C7.72386 14 7.5 13.7761 7.5 13.5L7.5 10.5C7.5 9.67157 6.82843 9 6 9H2.5C2.22386 9 2 8.77614 2 8.5C2 8.22386 2.22386 8 2.5 8H6C6.8178 8 7.54388 8.39267 8 8.99976C8.45611 8.39267 9.1822 8 10 8L13.5 8C13.7761 8 14 8.22386 14 8.5Z" fill="currentColor"/><path fill-rule="evenodd" clip-rule="evenodd" d="M8 1C8.13261 1 8.25979 1.05268 8.35355 1.14645L10.8536 3.64645C11.0488 3.84171 11.0488 4.15829 10.8536 4.35355C10.6583 4.54882 10.3417 4.54882 10.1464 4.35355L8 2.20711L5.85355 4.35355C5.65829 4.54882 5.34171 4.54882 5.14645 4.35355C4.95118 4.15829 4.95118 3.84171 5.14645 3.64645L7.64645 1.14645C7.74021 1.05268 7.86739 1 8 1ZM14 8.5C14 8.63261 13.9473 8.75979 13.8536 8.85355L11.3536 11.3536C11.1583 11.5488 10.8417 11.5488 10.6464 11.3536C10.4512 11.1583 10.4512 10.8417 10.6464 10.6464L12.7929 8.5L10.6464 6.35355C10.4512 6.15829 10.4512 5.84171 10.6464 5.64645C10.8417 5.45118 11.1583 5.45118 11.3536 5.64645L13.8536 8.14645C13.9473 8.24021 14 8.36739 14 8.5ZM2.14645 8.85355C2.05268 8.75979 2 8.63261 2 8.5C2 8.36739 2.05268 8.24021 2.14645 8.14645L4.64645 5.64645C4.84171 5.45118 5.15829 5.45118 5.35355 5.64645C5.54882 5.84171 5.54882 6.15829 5.35355 6.35355L3.20711 8.5L5.35355 10.6464C5.54882 10.8417 5.54882 11.1583 5.35355 11.3536C5.15829 11.5488 4.84171 11.5488 4.64645 11.3536L2.14645 8.85355Z" fill="currentColor"/></svg>

<svg xmlns="http://www.w3.org/2000/svg" fill="none" viewBox="0 0 16 16" width="1em" height="1em"><path fill="currentColor" fill-rule="evenodd" d="M7.5 6.5v-5a.5.5 0 0 1 1 0v5a.5.5 0 0 1-1 0Zm6.5 2a.5.5 0 0 1-.5.5H10a1.5 1.5 0 0 0-1.5 1.5v3a.5.5 0 0 1-1 0v-3A1.5 1.5 0 0 0 6 9H2.5a.5.5 0 0 1 0-1H6c.818 0 1.544.393 2 1 .456-.607 1.182-1 2-1h3.5a.5.5 0 0 1 .5.5Z" clip-rule="evenodd"/><path fill="currentColor" fill-rule="evenodd" d="M8 1a.5.5 0 0 1 .354.146l2.5 2.5a.5.5 0 0 1-.708.708L8 2.207 5.854 4.354a.5.5 0 1 1-.708-.708l2.5-2.5A.5.5 0 0 1 8 1Zm6 7.5a.5.5 0 0 1-.146.354l-2.5 2.5a.5.5 0 0 1-.708-.708L12.793 8.5l-2.147-2.146a.5.5 0 0 1 .708-.708l2.5 2.5A.5.5 0 0 1 14 8.5Zm-11.854.354a.5.5 0 0 1 0-.708l2.5-2.5a.5.5 0 1 1 .708.708L3.207 8.5l2.147 2.146a.5.5 0 0 1-.708.708l-2.5-2.5Z" clip-rule="evenodd"/></svg>
